Numix-GalliumOS/48/categories/preferences-system-time.svg

<?xml version="1.0" encoding="UTF-8" standalone="no"?>
<svg
   xmlns:dc="http://purl.org/dc/elements/1.1/"
   xmlns:cc="http://creativecommons.org/ns#"
   xmlns:rdf="http://www.w3.org/1999/02/22-rdf-syntax-ns#"
   xmlns:svg="http://www.w3.org/2000/svg"
   xmlns="http://www.w3.org/2000/svg"
   xmlns:sodipodi="http://sodipodi.sourceforge.net/DTD/sodipodi-0.dtd"
   xmlns:inkscape="http://www.inkscape.org/namespaces/inkscape"
   width="48"
   height="48"
   viewBox="0 0 38.4 38.4"
   id="svg2"
   version="1.1"
   inkscape:version="0.91 r"
   sodipodi:docname="preferences-system-time.svg">
  <metadata
     id="metadata60">
    <rdf:RDF>
      <cc:Work
         rdf:about="">
        <dc:format>image/svg+xml</dc:format>
        <dc:type
           rdf:resource="http://purl.org/dc/dcmitype/StillImage" />
        <dc:title />
      </cc:Work>
    </rdf:RDF>
  </metadata>
  <defs
     id="defs58" />
  <sodipodi:namedview
     pagecolor="#ffffff"
     bordercolor="#666666"
     borderopacity="1"
     objecttolerance="10"
     gridtolerance="10"
     guidetolerance="10"
     inkscape:pageopacity="0"
     inkscape:pageshadow="2"
     inkscape:window-width="1920"
     inkscape:window-height="1056"
     id="namedview56"
     showgrid="true"
     inkscape:zoom="5.6568543"
     inkscape:cx="-38.463308"
     inkscape:cy="52.108419"
     inkscape:window-x="0"
     inkscape:window-y="24"
     inkscape:window-maximized="1"
     inkscape:current-layer="svg2">
    <inkscape:grid
       type="xygrid"
       id="grid4229" />
  </sodipodi:namedview>
  <path
     style="fill:#fd4651;fill-opacity:1"
     d="m 19.013333,8 0.373334,0 C 19.722666,8 20,8.204682 20,8.461539 l 0,1.476922 C 20,10.191304 19.722666,10.4 19.386667,10.4 l -0.373334,0 C 18.677334,10.4 18.4,10.191304 18.4,9.938461 l 0,-1.476922 C 18.4,8.204682 18.677334,8 19.013333,8 Z"
     id="path20"
     inkscape:connector-curvature="0" />
  <path
     style="fill:#fd4651;fill-opacity:1"
     d="m 19.013333,28.08 0.373334,0 C 19.722666,28.08 20,28.288347 20,28.540767 l 0,1.478465 C 20,30.271652 19.722666,30.48 19.386667,30.48 l -0.373334,0 C 18.677334,30.48 18.4,30.271652 18.4,30.019232 l 0,-1.478465 C 18.4,28.288347 18.677334,28.08 19.013333,28.08 Z"
     id="path22"
     inkscape:connector-curvature="0" />
  <path
     style="fill:#fd4651;fill-opacity:1"
     d="m 8,19.384615 0,-0.36923 C 8,18.678262 8.208346,18.4 8.464774,18.4 l 1.474458,0 C 10.191653,18.4 10.4,18.678262 10.4,19.015385 l 0,0.36923 C 10.4,19.72709 10.191653,20 9.939232,20 L 8.464774,20 C 8.208346,20 8,19.72709 8,19.384615 Z"
     id="path24"
     inkscape:connector-curvature="0" />
  <path
     style="fill:#fd4651;fill-opacity:1"
     d="m 28,19.384615 0,-0.36923 C 28,18.678262 28.208696,18.4 28.461539,18.4 l 1.476922,0 C 30.195318,18.4 30.4,18.678262 30.4,19.015385 l 0,0.36923 C 30.4,19.72709 30.195318,20 29.938461,20 l -1.476922,0 C 28.208696,20 28,19.72709 28,19.384615 Z"
     id="path26"
     inkscape:connector-curvature="0" />
  <circle
     style="opacity:1;fill:none;fill-opacity:1;fill-rule:nonzero;stroke:#fd4651;stroke-width:3.20000005;stroke-linecap:butt;stroke-linejoin:miter;stroke-miterlimit:4;stroke-dasharray:none;stroke-dashoffset:0;stroke-opacity:1"
     id="path4231"
     cx="19.200001"
     cy="19.200001"
     r="14.400001" />
  <path
     style="fill:#fd4651;fill-opacity:1;fill-rule:nonzero;stroke:none"
     d="M 16.994141 15.990234 C 16.767141 15.990234 16.539188 16.078 16.367188 16.25 L 16.330078 16.292969 C 15.982078 16.636969 15.982078 17.198969 16.330078 17.542969 L 21.541016 22.753906 C 21.543409 22.756327 21.546414 22.757379 21.548828 22.759766 A 2.7500001 2.7500001 0 0 1 22.861328 21.5 C 22.850443 21.48771 22.845662 21.472751 22.833984 21.460938 L 17.623047 16.25 C 17.449047 16.078 17.221141 15.990234 16.994141 15.990234 z "
     transform="scale(0.8,0.8)"
     id="path55" />
  <path
     style="fill:#fd4651;fill-opacity:1;fill-rule:nonzero;stroke:none"
     d="M 35.191406 16.462891 C 35.077059 16.477273 34.963943 16.514672 34.857422 16.576172 L 25.714844 21.853516 A 2.7500001 2.7500001 0 0 1 26.716797 23.587891 L 35.857422 18.310547 C 36.283512 18.064546 36.427594 17.520276 36.183594 17.097656 L 36.070312 16.900391 C 35.885813 16.580824 35.534449 16.419744 35.191406 16.462891 z "
     transform="scale(0.8,0.8)"
     id="path57" />
  <path
     style="fill:#fd4651;fill-opacity:1;fill-rule:nonzero;stroke:none"
     d="M 22.222656 26.099609 L 17.117188 35.507812 C 17.000187 35.722813 17.074156 35.999906 17.285156 36.128906 L 17.34375 36.167969 C 17.55475 36.292969 17.816594 36.222812 17.933594 36.007812 L 23.052734 26.578125 A 2.7500001 2.7500001 0 0 1 22.222656 26.099609 z "
     transform="scale(0.8,0.8)"
     id="path59" />
  <path
     style="fill:#fd4651;fill-opacity:1;fill-rule:nonzero;stroke:none"
     d="M 24 21 C 22.341751 21 21 22.34175 21 24 C 21 25.65825 22.341751 27 24 27 C 25.65825 27 27 25.65825 27 24 C 27 22.34175 25.65825 21 24 21 z M 24 22 C 25.105 22 26 22.895 26 24 C 26 25.105 25.105 26 24 26 C 22.895 26 22 25.105 22 24 C 22 22.895 22.895 22 24 22 z "
     transform="scale(0.8,0.8)"
     id="path61" />
</svg>

<svg xmlns="http://www.w3.org/2000/svg" width="48" height="48" viewBox="0 0 38.4 38.4">
 <path d="m 19.01 8 0.373 0 c 0.336 0 0.613 0.205 0.613 0.462 l 0 1.477 c 0 0.253 -0.277 0.462 -0.613 0.462 l -0.373 0 c -0.336 0 -0.613 -0.209 -0.613 -0.462 l 0 -1.477 c 0 -0.257 0.277 -0.462 0.613 -0.462" style="fill:#fd4651;fill-opacity:1"/>
 <path d="m 19.01 28.08 0.373 0 c 0.336 0 0.613 0.208 0.613 0.461 l 0 1.478 c 0 0.252 -0.277 0.461 -0.613 0.461 l -0.373 0 c -0.336 0 -0.613 -0.208 -0.613 -0.461 l 0 -1.478 c 0 -0.252 0.277 -0.461 0.613 -0.461" style="fill:#fd4651;fill-opacity:1"/>
 <path d="m 8 19.385 0 -0.369 c 0 -0.337 0.208 -0.615 0.465 -0.615 l 1.474 0 c 0.252 0 0.461 0.278 0.461 0.615 l 0 0.369 c 0 0.342 -0.208 0.615 -0.461 0.615 l -1.474 0 c -0.256 0 -0.465 -0.273 -0.465 -0.615" style="fill:#fd4651;fill-opacity:1"/>
 <path d="m 28 19.385 0 -0.369 c 0 -0.337 0.209 -0.615 0.462 -0.615 l 1.477 0 c 0.257 0 0.462 0.278 0.462 0.615 l 0 0.369 c 0 0.342 -0.205 0.615 -0.462 0.615 l -1.477 0 c -0.253 0 -0.462 -0.273 -0.462 -0.615" style="fill:#fd4651;fill-opacity:1"/>
 <circle cx="19.2" cy="19.2" r="14.4" style="stroke-dasharray:none;stroke-opacity:1;fill:none;opacity:1;stroke-miterlimit:4;fill-opacity:1;stroke:#fd4651;fill-rule:nonzero;stroke-linecap:butt;stroke-linejoin:miter;stroke-width:3.2;stroke-dashoffset:0"/>
 <path d="m 16.994 15.99 c -0.227 0 -0.455 0.088 -0.627 0.26 l -0.037 0.043 c -0.348 0.344 -0.348 0.906 0 1.25 l 5.211 5.211 c 0.002 0.002 0.005 0.003 0.008 0.006 a 2.75 2.75 0 0 1 1.313 -1.26 c -0.011 -0.012 -0.016 -0.027 -0.027 -0.039 l -5.211 -5.211 c -0.174 -0.172 -0.402 -0.26 -0.629 -0.26 z" transform="scale(0.8,0.8)" style="fill:#fd4651;fill-opacity:1;stroke:none;fill-rule:nonzero"/>
 <path d="m 35.19 16.463 c -0.114 0.014 -0.227 0.052 -0.334 0.113 l -9.143 5.277 a 2.75 2.75 0 0 1 1 1.734 l 9.141 -5.277 c 0.426 -0.246 0.57 -0.79 0.326 -1.213 l -0.113 -0.197 c -0.184 -0.32 -0.536 -0.481 -0.879 -0.438 z" transform="scale(0.8,0.8)" style="fill:#fd4651;fill-opacity:1;stroke:none;fill-rule:nonzero"/>
 <path d="m 22.22 26.1 l -5.105 9.408 c -0.117 0.215 -0.043 0.492 0.168 0.621 l 0.059 0.039 c 0.211 0.125 0.473 0.055 0.59 -0.16 l 5.119 -9.43 a 2.75 2.75 0 0 1 -0.83 -0.479 z" transform="scale(0.8,0.8)" style="fill:#fd4651;fill-opacity:1;stroke:none;fill-rule:nonzero"/>
 <path d="m 24 21 c -1.658 0 -3 1.342 -3 3 c 0 1.658 1.342 3 3 3 c 1.658 0 3 -1.342 3 -3 c 0 -1.658 -1.342 -3 -3 -3 z m 0 1 c 1.105 0 2 0.895 2 2 c 0 1.105 -0.895 2 -2 2 c -1.105 0 -2 -0.895 -2 -2 c 0 -1.105 0.895 -2 2 -2 z" transform="scale(0.8,0.8)" style="fill:#fd4651;fill-opacity:1;stroke:none;fill-rule:nonzero"/>
</svg>
